packages/icons/src/emoji/svg/film.svg

<svg width="120" height="120" viewBox="0 0 120 120" fill="none" xmlns="http://www.w3.org/2000/svg">
<path d="M0 19.6875H120V100.312H0V19.6875Z" fill="#424242"/>
<path d="M0 83.4376H15C16.0312 83.4376 16.875 82.5938 16.875 81.5626V38.4376C16.875 37.4063 16.0312 36.5626 15 36.5626H0V83.4376ZM105 83.4376H120V36.5626H105C103.969 36.5626 103.125 37.4063 103.125 38.4376V81.5626C103.125 82.5938 103.969 83.4376 105 83.4376ZM26.2125 83.4376H93.7781C94.7719 83.4376 95.5781 82.6313 95.5781 81.6376V38.3626C95.5781 37.3688 94.7719 36.5626 93.7781 36.5626H26.2125C25.2188 36.5626 24.4125 37.3688 24.4125 38.3626V81.6282C24.4125 82.6313 25.2188 83.4376 26.2125 83.4376ZM6.5625 31.8188H0.9375C0.421875 31.8188 0 31.397 0 30.8813V25.2563C0 24.7407 0.421875 24.3188 0.9375 24.3188H6.5625C7.07812 24.3188 7.5 24.7407 7.5 25.2563V30.8813C7.5 31.397 7.07812 31.8188 6.5625 31.8188ZM22.6312 31.8188H17.0062C16.4906 31.8188 16.0687 31.397 16.0687 30.8813V25.2563C16.0687 24.7407 16.4906 24.3188 17.0062 24.3188H22.6312C23.1469 24.3188 23.5687 24.7407 23.5687 25.2563V30.8813C23.5687 31.397 23.1469 31.8188 22.6312 31.8188ZM38.7094 31.8188H33.0844C32.5688 31.8188 32.1469 31.397 32.1469 30.8813V25.2563C32.1469 24.7407 32.5688 24.3188 33.0844 24.3188H38.7094C39.225 24.3188 39.6469 24.7407 39.6469 25.2563V30.8813C39.6469 31.397 39.225 31.8188 38.7094 31.8188ZM70.8469 31.8188H65.2219C64.7063 31.8188 64.2844 31.397 64.2844 30.8813V25.2563C64.2844 24.7407 64.7063 24.3188 65.2219 24.3188H70.8469C71.3625 24.3188 71.7844 24.7407 71.7844 25.2563V30.8813C71.7844 31.397 71.3625 31.8188 70.8469 31.8188ZM54.7781 31.8188H49.1531C48.6375 31.8188 48.2156 31.397 48.2156 30.8813V25.2563C48.2156 24.7407 48.6375 24.3188 49.1531 24.3188H54.7781C55.2938 24.3188 55.7156 24.7407 55.7156 25.2563V30.8813C55.7156 31.397 55.2938 31.8188 54.7781 31.8188ZM86.9156 31.8188H81.2906C80.775 31.8188 80.3531 31.397 80.3531 30.8813V25.2563C80.3531 24.7407 80.775 24.3188 81.2906 24.3188H86.9156C87.4313 24.3188 87.8531 24.7407 87.8531 25.2563V30.8813C87.8531 31.397 87.4313 31.8188 86.9156 31.8188ZM102.994 31.8188H97.3688C96.8531 31.8188 96.4313 31.397 96.4313 30.8813V25.2563C96.4313 24.7407 96.8531 24.3188 97.3688 24.3188H102.994C103.509 24.3188 103.931 24.7407 103.931 25.2563V30.8813C103.931 31.397 103.509 31.8188 102.994 31.8188ZM119.062 31.8188H113.438C112.922 31.8188 112.5 31.397 112.5 30.8813V25.2563C112.5 24.7407 112.922 24.3188 113.438 24.3188H119.062C119.578 24.3188 120 24.7407 120 25.2563V30.8813C120 31.397 119.578 31.8188 119.062 31.8188ZM6.5625 95.6251H0.9375C0.421875 95.6251 0 95.2032 0 94.6876V89.0626C0 88.547 0.421875 88.1251 0.9375 88.1251H6.5625C7.07812 88.1251 7.5 88.547 7.5 89.0626V94.6876C7.5 95.2032 7.07812 95.6251 6.5625 95.6251ZM22.6312 95.6251H17.0062C16.4906 95.6251 16.0687 95.2032 16.0687 94.6876V89.0626C16.0687 88.547 16.4906 88.1251 17.0062 88.1251H22.6312C23.1469 88.1251 23.5687 88.547 23.5687 89.0626V94.6876C23.5687 95.2032 23.1469 95.6251 22.6312 95.6251ZM38.7094 95.6251H33.0844C32.5688 95.6251 32.1469 95.2032 32.1469 94.6876V89.0626C32.1469 88.547 32.5688 88.1251 33.0844 88.1251H38.7094C39.225 88.1251 39.6469 88.547 39.6469 89.0626V94.6876C39.6469 95.2032 39.225 95.6251 38.7094 95.6251ZM70.8469 95.6251H65.2219C64.7063 95.6251 64.2844 95.2032 64.2844 94.6876V89.0626C64.2844 88.547 64.7063 88.1251 65.2219 88.1251H70.8469C71.3625 88.1251 71.7844 88.547 71.7844 89.0626V94.6876C71.7844 95.2032 71.3625 95.6251 70.8469 95.6251ZM54.7781 95.6251H49.1531C48.6375 95.6251 48.2156 95.2032 48.2156 94.6876V89.0626C48.2156 88.547 48.6375 88.1251 49.1531 88.1251H54.7781C55.2938 88.1251 55.7156 88.547 55.7156 89.0626V94.6876C55.7156 95.2032 55.2938 95.6251 54.7781 95.6251ZM86.9156 95.6251H81.2906C80.775 95.6251 80.3531 95.2032 80.3531 94.6876V89.0626C80.3531 88.547 80.775 88.1251 81.2906 88.1251H86.9156C87.4313 88.1251 87.8531 88.547 87.8531 89.0626V94.6876C87.8531 95.2032 87.4313 95.6251 86.9156 95.6251ZM102.994 95.6251H97.3688C96.8531 95.6251 96.4313 95.2032 96.4313 94.6876V89.0626C96.4313 88.547 96.8531 88.1251 97.3688 88.1251H102.994C103.509 88.1251 103.931 88.547 103.931 89.0626V94.6876C103.931 95.2032 103.509 95.6251 102.994 95.6251ZM119.062 95.6251H113.438C112.922 95.6251 112.5 95.2032 112.5 94.6876V89.0626C112.5 88.547 112.922 88.1251 113.438 88.1251H119.062C119.578 88.1251 120 88.547 120 89.0626V94.6876C120 95.2032 119.578 95.6251 119.062 95.6251Z" fill="#858A93"/>
</svg>

<svg xmlns="http://www.w3.org/2000/svg" fill="none" aria-hidden="true" data-slot="icon" viewBox="0 0 120 120"><path fill="#424242" d="M0 19.688h120v80.624H0z"/><path fill="#858A93" d="M0 83.438h15a1.88 1.88 0 0 0 1.875-1.875V38.438A1.88 1.88 0 0 0 15 36.563H0zm105 0h15V36.563h-15a1.88 1.88 0 0 0-1.875 1.875v43.125A1.88 1.88 0 0 0 105 83.438m-78.787 0h67.565a1.8 1.8 0 0 0 1.8-1.8V38.363a1.8 1.8 0 0 0-1.8-1.8H26.213a1.8 1.8 0 0 0-1.8 1.8v43.265c0 1.003.806 1.81 1.8 1.81m-19.65-51.62H.938A.94.94 0 0 1 0 30.882v-5.625a.94.94 0 0 1 .938-.937h5.625a.94.94 0 0 1 .937.937v5.625a.94.94 0 0 1-.937.938m16.068 0h-5.625a.94.94 0 0 1-.937-.937v-5.625a.94.94 0 0 1 .937-.937h5.625a.94.94 0 0 1 .938.937v5.625a.94.94 0 0 1-.938.938m16.078 0h-5.625a.94.94 0 0 1-.937-.937v-5.625a.94.94 0 0 1 .937-.937h5.625a.94.94 0 0 1 .938.937v5.625a.94.94 0 0 1-.938.938m32.138 0h-5.625a.94.94 0 0 1-.938-.937V25.26a.94.94 0 0 1 .938-.937h5.625a.94.94 0 0 1 .937.937v5.625a.94.94 0 0 1-.937.938m-16.069 0h-5.625a.94.94 0 0 1-.937-.937v-5.625a.94.94 0 0 1 .937-.937h5.625a.94.94 0 0 1 .938.937v5.625a.94.94 0 0 1-.938.938m32.138 0H81.29a.94.94 0 0 1-.938-.937v-5.625a.94.94 0 0 1 .938-.937h5.625a.94.94 0 0 1 .937.937v5.625a.94.94 0 0 1-.937.938m16.078 0h-5.625a.94.94 0 0 1-.938-.937v-5.625a.94.94 0 0 1 .938-.937h5.625a.94.94 0 0 1 .937.937v5.625a.94.94 0 0 1-.937.938m16.068 0h-5.624a.94.94 0 0 1-.938-.937v-5.625a.94.94 0 0 1 .938-.937h5.624a.94.94 0 0 1 .938.937v5.625a.94.94 0 0 1-.938.938M6.562 95.626H.939A.94.94 0 0 1 0 94.688v-5.625a.94.94 0 0 1 .938-.938h5.625a.94.94 0 0 1 .937.938v5.625a.94.94 0 0 1-.937.937m16.07 0h-5.626a.94.94 0 0 1-.937-.937v-5.625a.94.94 0 0 1 .937-.938h5.625a.94.94 0 0 1 .938.938v5.625a.94.94 0 0 1-.938.937m16.077 0h-5.625a.94.94 0 0 1-.937-.937v-5.625a.94.94 0 0 1 .937-.938h5.625a.94.94 0 0 1 .938.938v5.625a.94.94 0 0 1-.938.937m32.138 0h-5.625a.94.94 0 0 1-.938-.937v-5.625a.94.94 0 0 1 .938-.938h5.625a.94.94 0 0 1 .937.938v5.625a.94.94 0 0 1-.937.937m-16.069 0h-5.625a.94.94 0 0 1-.937-.937v-5.625a.94.94 0 0 1 .937-.938h5.625a.94.94 0 0 1 .938.938v5.625a.94.94 0 0 1-.938.937m32.138 0H81.29a.94.94 0 0 1-.938-.937v-5.625a.94.94 0 0 1 .938-.938h5.625a.94.94 0 0 1 .937.938v5.625a.94.94 0 0 1-.937.937m16.078 0h-5.625a.94.94 0 0 1-.938-.937v-5.625a.94.94 0 0 1 .938-.938h5.625a.94.94 0 0 1 .937.938v5.625a.94.94 0 0 1-.937.937m16.068 0h-5.624a.94.94 0 0 1-.938-.937v-5.625a.94.94 0 0 1 .938-.938h5.624a.94.94 0 0 1 .938.938v5.625a.94.94 0 0 1-.938.937"/></svg>
